X: 11291
Q: "Dolce."
M: C
L: 1/8
K: F
[|\
c2c2 f2e2 | (e2d2) d2z2 | G2G>G d2c2 | (B2A2) A2z2 |\
c2c>c f2e2 | ("_>"e2d)z (f4 | fe)dc (cB)(AG) | F2z2 z4 |\
c2c>c f2e2 | ("_>"e2d)z f4- | fe(dc) (cB)(AG) | F2z2 "_>"d4 |\
c3A B>AB>c | A2z2 B4 | A3F G>^F (GB/A/) | F4 z4 H|]


